logos/settings.svg

<?xml version="1.0" encoding="UTF-8" standalone="no"?>
<svg
   xmlns:dc="http://purl.org/dc/elements/1.1/"
   xmlns:cc="http://creativecommons.org/ns#"
   xmlns:rdf="http://www.w3.org/1999/02/22-rdf-syntax-ns#"
   xmlns:svg="http://www.w3.org/2000/svg"
   xmlns="http://www.w3.org/2000/svg"
   xmlns:sodipodi="http://sodipodi.sourceforge.net/DTD/sodipodi-0.dtd"
   xmlns:inkscape="http://www.inkscape.org/namespaces/inkscape"
   id="elfg01kjal71"
   viewBox="0 0 769 769"
   width="500"
   height="500"
   shape-rendering="geometricPrecision"
   text-rendering="geometricPrecision"
   version="1.1"
   sodipodi:docname="Settings.svg"
   inkscape:version="0.92.4 (5da689c313, 2019-01-14)">
  <metadata
     id="metadata17">
    <rdf:RDF>
      <cc:Work
         rdf:about="">
        <dc:format>image/svg+xml</dc:format>
        <dc:type
           rdf:resource="http://purl.org/dc/dcmitype/StillImage" />
        <dc:title></dc:title>
      </cc:Work>
    </rdf:RDF>
  </metadata>
  <defs
     id="defs15" />
  <sodipodi:namedview
     pagecolor="#ffffff"
     bordercolor="#666666"
     borderopacity="1"
     objecttolerance="10"
     gridtolerance="10"
     guidetolerance="10"
     inkscape:pageopacity="0"
     inkscape:pageshadow="2"
     inkscape:window-width="732"
     inkscape:window-height="480"
     id="namedview13"
     showgrid="false"
     inkscape:zoom="0.30689207"
     inkscape:cx="384.5"
     inkscape:cy="384.5"
     inkscape:window-x="0"
     inkscape:window-y="0"
     inkscape:window-maximized="0"
     inkscape:current-layer="elfg01kjal71" />
  <style
     id="style2"><![CDATA[#elfg01kjal71{pointer-events: all} #elfg01kjal71:hover * {animation-play-state: running !important}#elfg01kjal76_tr {animation: elfg01kjal76_tr__tr 9000ms linear infinite normal forwards}@keyframes elfg01kjal76_tr__tr { 0% {transform: translate(299.001880px,673.181962px) rotate(0deg)} 100% {transform: translate(299.001880px,673.181962px) rotate(360deg)} }]]></style>
  <g
     id="elfg01kjal72"
     transform="matrix(4 0 0 4 -806.00646972499999 -2320.39990236499943)">
    <path
       id="elfg01kjal73"
       d="M393.750000,676.010000C393.750000,700.070000,393.750000,724.140000,393.750000,748.200000C393.750000,759.230000,385.430000,769.310000,374.570000,771.380000C372.960000,771.690000,371.300000,771.860000,369.670000,771.860000C321.700000,771.890000,273.740000,771.880000,225.770000,771.880000C214.010000,771.880000,203.750000,762.860000,202.210000,751.160000C202.070000,750.130000,201.980000,749.080000,201.980000,748.040000C201.970000,699.950000,201.970000,651.860000,201.970000,603.780000C201.970000,592.750000,210.290000,582.660000,221.150000,580.600000C222.760000,580.290000,224.420000,580.120000,226.050000,580.120000C274.060000,580.100000,322.070000,580.100000,370.070000,580.100000C381.100000,580.100000,391.200000,588.430000,393.250000,599.280000C393.550000,600.890000,393.730000,602.550000,393.730000,604.180000C393.760000,628.120000,393.750000,652.070000,393.750000,676.010000Z"
       fill="#ffcb28"
       stroke="none"
       stroke-width="1" />
  </g>
  <g
     id="elfg01kjal74"
     transform="matrix(4 0 0 4 -826.54470063500003 -2336.75341797499914)">
    <g
       id="elfg01kjal75">
      <g
         id="elfg01kjal76_tr"
         transform="translate(299.001880,673.181962) rotate(0)">
        <path
           id="elfg01kjal76"
           d="M291.240000,592.790000C289.310000,593.090000,287.820000,594.580000,287.820000,595.910000C287.820000,597.250000,287.080000,600.970000,286.180000,603.950000C284.250000,611.390000,279.630000,611.540000,273.980000,604.400000C271.750000,601.570000,268.620000,599.190000,267.280000,599.190000C263.860000,599.190000,250.610000,607.520000,250.610000,609.610000C250.610000,610.500000,251.650000,613.630000,252.840000,616.600000C254.030000,619.430000,255.070000,622.850000,255.070000,623.890000C255.070000,627.160000,248.520000,627.910000,242.420000,625.380000C239.300000,624.040000,236.620000,623,236.320000,623C234.680000,623,226.800000,637.430000,226.800000,640.260000C226.800000,642.340000,228.730000,645.170000,232.010000,647.700000C234.840000,649.780000,237.220000,652.460000,237.220000,653.650000C237.220000,656.480000,231.270000,660.200000,226.510000,660.200000C219.370000,660.200000,216.390000,667.640000,218.770000,679.400000C219.660000,683.570000,220.260000,684.010000,225.170000,684.010000C230.820000,684.010000,237.220000,687.430000,237.220000,690.260000C237.220000,691.300000,234.840000,694.130000,232.010000,696.810000C229.180000,699.340000,226.800000,702.910000,226.800000,704.700000C226.800000,708.870000,230.070000,715.260000,233.940000,718.690000C236.920000,721.370000,237.210000,721.370000,243.460000,718.390000C249.860000,715.410000,249.860000,715.410000,252.830000,718.390000C255.660000,721.070000,255.660000,721.370000,253.130000,728.210000C250.750000,734.760000,250.750000,735.200000,253.130000,738.030000C254.620000,739.520000,258.490000,742.200000,261.760000,743.830000L267.560000,746.950000L273.360000,740.400000C278.870000,734.150000,279.160000,734,283.030000,736.230000C286.150000,737.870000,287.200000,739.650000,287.490000,744.270000C288.090000,751.560000,290.910000,753.940000,299.250000,753.940000C307.140000,753.940000,310.860000,750.520000,312.340000,742.180000C313.680000,734.140000,317.990000,732.510000,322.900000,738.460000C324.830000,740.840000,326.320000,743.220000,326.470000,743.820000C326.470000,746.350000,334.800000,744.860000,340.900000,741.290000C348.040000,736.970000,348.640000,734.590000,344.770000,726.410000C342.390000,721.500000,342.390000,721.050000,344.770000,718.670000C347.150000,716.290000,347.750000,716.290000,354.590000,718.820000C358.760000,720.310000,362.770000,721.050000,363.520000,720.610000C364.260000,720.010000,367.090000,715.850000,369.770000,711.240000C374.230000,703.350000,374.380000,702.760000,372,701.270000C365.160000,697.100000,362.180000,693.980000,362.180000,690.560000C362.180000,686.690000,366.640000,684.010000,373.340000,684.010000C377.800000,684.010000,380.040000,680.140000,380.040000,672.250000C380.040000,663.770000,378.850000,661.830000,372.900000,660.790000C360.700000,658.560000,359.210000,654.690000,367.390000,646.800000C370.220000,643.970000,372.600000,640.850000,372.600000,639.960000C372.600000,637.880000,364.420000,625.080000,362.180000,623.740000C361.440000,623.290000,358.760000,623.890000,356.380000,625.230000C350.730000,628.060000,346.710000,628.060000,344.330000,625.230000C342.690000,623.300000,342.840000,621.960000,344.780000,617.640000C348.350000,610.200000,348.050000,608.710000,341.060000,603.650000C333.170000,597.850000,330.640000,598,324.840000,604.390000C322.160000,607.220000,318.890000,609.600000,317.400000,609.600000C313.980000,609.600000,311.600000,605.280000,311.600000,599.330000C311.600000,596.950000,311,594.420000,310.110000,593.970000C308.060000,592.790000,295.110000,591.890000,291.240000,592.790000Z"
           transform="translate(-299.001880,-673.181962)"
           fill="#01507b"
           stroke="none"
           stroke-width="1" />
      </g>
      <path
         id="elfg01kjal77"
         d="M290.660000,625.970000C268.050000,629.930000,250.870000,649.660000,250.870000,673.400000C250.870000,698.050000,269.400000,718.380000,293.290000,721.220000C295.170000,721.440000,297.090000,721.560000,299.030000,721.560000C302.400000,721.560000,305.690000,721.210000,308.870000,720.550000C311.960000,723.560000,315.040000,726.560000,318.130000,729.570000C332.140000,743.210000,346.160000,756.830000,360.180000,770.460000C361.780000,768.990000,363.500000,767.410000,363.500000,767.410000L380.620000,751.690000L389,735.280000C389,735.280000,390.070000,734.300000,391.450000,733.030000C372.800000,716.040000,365.330000,697.490000,346.680000,680.500000C346.900000,679.020000,347.050000,677.510000,347.140000,675.980000C347.190000,675.120000,347.210000,674.260000,347.210000,673.390000C347.210000,646.800000,325.650000,625.240000,299.060000,625.240000C296.180000,625.250000,293.380000,625.500000,290.660000,625.970000Z"
         fill="#ffcb28"
         stroke="none"
         stroke-width="1" />
      <path
         id="elfg01kjal78"
         d="M269.760000,660.150000C275.390000,665.790000,280.860000,671.280000,286.340000,676.760000C289.080000,679.500000,290.780000,679.500000,293.520000,676.760000C296.960000,673.320000,300.390000,669.880000,303.830000,666.440000C306.560000,663.710000,306.570000,661.970000,303.890000,659.280000C298.800000,654.190000,293.710000,649.100000,288.620000,644.010000C288.190000,643.580000,287.790000,643.130000,286.910000,642.200000C290.490000,641.490000,293.610000,640.490000,296.790000,640.310000C313.640000,639.340000,327.310000,649.910000,330.430000,666.460000C331.100000,670,330.710000,673.790000,330.470000,677.440000C330.380000,678.890000,330.560000,679.810000,331.600000,680.810000C347.980000,696.630000,364.300000,712.490000,380.680000,728.310000C383.870000,731.390000,384.930000,734.910000,383.580000,739.170000C380.650000,748.420000,374.530000,754.330000,365.140000,756.720000C361.520000,757.640000,358.350000,756.540000,355.740000,753.840000C339.770000,737.350000,323.790000,720.880000,307.850000,704.370000C306.950000,703.440000,306.160000,703.100000,304.850000,703.310000C286.830000,706.190000,271.240000,695.290000,267.780000,677.450000C266.690000,671.930000,267.470000,664.870000,269.760000,660.150000Z"
         fill="#01507b"
         stroke="none"
         stroke-width="1" />
    </g>
  </g>
</svg>

<svg xmlns="http://www.w3.org/2000/svg" id="settings" viewBox="0 0 769 769" width="500" height="500" shape-rendering="geometricPrecision" text-rendering="geometricPrecision" version="1.1">
  <style id="spin">
    @keyframes gear_animation__tr{0%{transform:translate(299.00188px,673.181962px) rotate(0deg)}to{transform:translate(299.00188px,673.181962px) rotate(360deg)}}#gear_animation{animation:gear_animation__tr 3000ms linear infinite normal forwards}
  </style>
  <g id="background" transform="matrix(4 0 0 4 -806.006 -2320.4)">
    <path id="square" d="M393.75 676.01v72.19c0 11.03-8.32 21.11-19.18 23.18-1.61.31-3.27.48-4.9.48-47.97.03-95.93.02-143.9.02-11.76 0-22.02-9.02-23.56-20.72a23.27 23.27 0 01-.23-3.12c-.01-48.09-.01-96.18-.01-144.26 0-11.03 8.32-21.12 19.18-23.18 1.61-.31 3.27-.48 4.9-.48 48.01-.02 96.02-.02 144.02-.02 11.03 0 21.13 8.33 23.18 19.18.3 1.61.48 3.27.48 4.9.03 23.94.02 47.89.02 71.83z" fill="#F3632D" stroke="none" stroke-width="1"/>
  </g>
  <g id="settings_top" transform="matrix(4 0 0 4 -826.545 -2336.753)">
    <g id="settings_group">
      <g id="gear_animation" transform="translate(299.002 673.182)">
        <path id="gear" d="M291.24 592.79c-1.93.3-3.42 1.79-3.42 3.12 0 1.34-.74 5.06-1.64 8.04-1.93 7.44-6.55 7.59-12.2.45-2.23-2.83-5.36-5.21-6.7-5.21-3.42 0-16.67 8.33-16.67 10.42 0 .89 1.04 4.02 2.23 6.99 1.19 2.83 2.23 6.25 2.23 7.29 0 3.27-6.55 4.02-12.65 1.49-3.12-1.34-5.8-2.38-6.1-2.38-1.64 0-9.52 14.43-9.52 17.26 0 2.08 1.93 4.91 5.21 7.44 2.83 2.08 5.21 4.76 5.21 5.95 0 2.83-5.95 6.55-10.71 6.55-7.14 0-10.12 7.44-7.74 19.2.89 4.17 1.49 4.61 6.4 4.61 5.65 0 12.05 3.42 12.05 6.25 0 1.04-2.38 3.87-5.21 6.55-2.83 2.53-5.21 6.1-5.21 7.89 0 4.17 3.27 10.56 7.14 13.99 2.98 2.68 3.27 2.68 9.52-.3 6.4-2.98 6.4-2.98 9.37 0 2.83 2.68 2.83 2.98.3 9.82-2.38 6.55-2.38 6.99 0 9.82 1.49 1.49 5.36 4.17 8.63 5.8l5.8 3.12 5.8-6.55c5.51-6.25 5.8-6.4 9.67-4.17 3.12 1.64 4.17 3.42 4.46 8.04.6 7.29 3.42 9.67 11.76 9.67 7.89 0 11.61-3.42 13.09-11.76 1.34-8.04 5.65-9.67 10.56-3.72 1.93 2.38 3.42 4.76 3.57 5.36 0 2.53 8.33 1.04 14.43-2.53 7.14-4.32 7.74-6.7 3.87-14.88-2.38-4.91-2.38-5.36 0-7.74s2.98-2.38 9.82.15c4.17 1.49 8.18 2.23 8.93 1.79.74-.6 3.57-4.76 6.25-9.37 4.46-7.89 4.61-8.48 2.23-9.97-6.84-4.17-9.82-7.29-9.82-10.71 0-3.87 4.46-6.55 11.16-6.55 4.46 0 6.7-3.87 6.7-11.76 0-8.48-1.19-10.42-7.14-11.46-12.2-2.23-13.69-6.1-5.51-13.99 2.83-2.83 5.21-5.95 5.21-6.84 0-2.08-8.18-14.88-10.42-16.22-.74-.45-3.42.15-5.8 1.49-5.65 2.83-9.67 2.83-12.05 0-1.64-1.93-1.49-3.27.45-7.59 3.57-7.44 3.27-8.93-3.72-13.99-7.89-5.8-10.42-5.65-16.22.74-2.68 2.83-5.95 5.21-7.44 5.21-3.42 0-5.8-4.32-5.8-10.27 0-2.38-.6-4.91-1.49-5.36-2.05-1.18-15-2.08-18.87-1.18z" transform="translate(-299.002 -673.182)" fill="#FFF" stroke="none" stroke-width="1"/>
      </g>
      <path id="wrench_outline" d="M290.66 625.97c-22.61 3.96-39.79 23.69-39.79 47.43 0 24.65 18.53 44.98 42.42 47.82 1.88.22 3.8.34 5.74.34 3.37 0 6.66-.35 9.84-1.01l9.26 9.02c14.01 13.64 28.03 27.26 42.05 40.89l3.32-3.05 17.12-15.72 8.38-16.41s1.07-.98 2.45-2.25c-18.65-16.99-26.12-35.54-44.77-52.53.22-1.48.37-2.99.46-4.52.05-.86.07-1.72.07-2.59 0-26.59-21.56-48.15-48.15-48.15-2.88.01-5.68.26-8.4.73z" fill="#F3632D" stroke="none" stroke-width="1"/>
      <path id="wrench" d="M269.76 660.15c5.63 5.64 11.1 11.13 16.58 16.61 2.74 2.74 4.44 2.74 7.18 0 3.44-3.44 6.87-6.88 10.31-10.32 2.73-2.73 2.74-4.47.06-7.16l-15.27-15.27c-.43-.43-.83-.88-1.71-1.81 3.58-.71 6.7-1.71 9.88-1.89 16.85-.97 30.52 9.6 33.64 26.15.67 3.54.28 7.33.04 10.98-.09 1.45.09 2.37 1.13 3.37 16.38 15.82 32.7 31.68 49.08 47.5 3.19 3.08 4.25 6.6 2.9 10.86-2.93 9.25-9.05 15.16-18.44 17.55-3.62.92-6.79-.18-9.4-2.88-15.97-16.49-31.95-32.96-47.89-49.47-.9-.93-1.69-1.27-3-1.06-18.02 2.88-33.61-8.02-37.07-25.86-1.09-5.52-.31-12.58 1.98-17.3z" fill="#FFF" stroke="none" stroke-width="1"/>
    </g>
  </g>
</svg>
